src/assets/images/cpu.svg

<svg fill="none" height="20" viewBox="0 0 20 20" width="20" xmlns="http://www.w3.org/2000/svg"><g fill="#fff"><path d="m9.62547 16.064c-1.41662 0-2.82916.0041-4.24578 0-.87928-.004-1.57944-.5332-1.79112-1.3433-.04478-.171-.06513-.346-.06513-.5211 0-2.8169 0-5.63385 0-8.4508 0-1.10724.76937-1.87661 1.88068-1.87661 2.8088-.00407 5.62168-.00407 8.43048 0 1.1113 0 1.8807.76937 1.8807 1.87661.0041 2.81695.0041 5.6339 0 8.4508 0 1.0951-.7735 1.8644-1.8725 1.8685-1.4004-.0041-2.8089-.0041-4.21733-.0041zm-4.30277-6.12234v4.04224c0 .2809 0 .2809.28088.2809h8.03972c.2809 0 .2809 0 .2809-.2809 0-2.6785 0-5.36116 0-8.0397 0-.28088 0-.28088-.2809-.28088-2.6786 0-5.36117 0-8.03972 0-.28088 0-.28088 0-.28088.28088z"/><path d="m9.61398 2.17935c-.22796 0-.45999-.00407-.68795 0-.13434.00407-.19947-.04477-.19947-.18725.00407-.46813.00407-.9322 0-1.400333 0-.138405.06106-.191324.1954-.187253.46813.00407.9322.00407 1.40034 0 .1547 0 .1995.065131.1995.207607-.0041.451849-.0041.907779 0 1.359629 0 .15876-.0652.21575-.2199.2076-.2279-.00814-.45589 0-.68792 0z"/><path d="m1.8375 9.96236c0 .22794-.00407.46004 0 .68794.00407.1466-.04478.2117-.19539.2076-.46-.004-.91999-.004-1.379983 0-.150618 0-.1994663-.0651-.1994663-.2076.0040707-.46.0081415-.91997 0-1.37996-.0040707-.16283.0692023-.21168.2198193-.20761.447781.00407.89149.00814 1.33927 0 .17097-.00407.22389.0692.21575.23203-.00814.22389 0 .44778 0 .6676z"/><path d="m17.407 9.94179c0-.22389.0041-.44778 0-.6676-.004-.14654.0448-.21168.1954-.2076.46.00407.92.00407 1.38 0 .1506 0 .1995.06513.1995.2076-.0041.46-.0082.92001 0 1.38001.0041.1628-.0692.2117-.2198.2076-.4478-.0041-.8915-.0082-1.3393 0-.171.0041-.2239-.0692-.2158-.2321.0082-.2238 0-.4559 0-.68791z"/><path d="m9.62212 17.7503c.22797 0 .45998.004.68798 0 .1425-.0041.2117.0407.2117.1953-.0041.4682-.0041.9322 0 1.4004 0 .1262-.053.1832-.1832.1791-.47223-.0041-.94851-.0041-1.42071 0-.14248 0-.19133-.0611-.19133-.1954.00407-.46.00407-.92 0-1.38 0-.1465.05699-.2035.20761-.1994.22796.0081.45592 0 .68795 0z"/><path d="m6.16509.408618c.22389 0 .44778.004071.6676 0 .14248-.004071.21168.040707.20761.195395-.00814.464067-.00407.932197 0 1.396267 0 .12619-.04478.18318-.17504.17911-.47221-.00407-.94441-.00407-1.41662 0-.13026 0-.17911-.05292-.17911-.18319.00407-.46406.00407-.93219 0-1.396258 0-.154688.0692-.199466.21168-.195395.22389.008142.45185.004071.68388.004071z"/><path d="m13.0863 2.17897c-.2361 0-.4722-.00407-.7083 0-.118.00407-.171-.04478-.171-.1669.0041-.48034.0041-.96069 0-1.436967 0-.122122.053-.1669.171-.1669.4722 0 .9444.004071 1.4166 0 .1262 0 .1832.048849.1832.179112-.0041.472205-.0041.944415 0 1.416615 0 .13434-.0611.17911-.1873.17504-.2279-.00407-.464 0-.7042 0z"/><path d="m1.83734 6.49097c0 .23611-.00407.47221 0 .70831.00407.13027-.04478.17911-.17911.17911-.47221-.00407-.944412-.00407-1.416618 0-.134334 0-.179112-.05699-.179112-.18318.0040707-.46406.0040707-.9322 0-1.39626 0-.13841.05292-.1954.191325-.19133.464063.00408.932195.00408 1.396265 0 .14247 0 .18725.06107.18318.1954 0 .22796.00407.45999.00407.68795z"/><path d="m18.2774 7.37841c-.228 0-.46-.00407-.688 0-.1262.00407-.1832-.04071-.1832-.17504.0041-.47221.0041-.94441 0-1.41662 0-.13026.0489-.18318.1792-.17911.4722.00407.9444.00407 1.4166 0 .1343 0 .175.06106.175.18725-.0041.46407-.0041.9322 0 1.39626 0 .13841-.0529.19133-.1913.18726-.2361-.00407-.4722 0-.7083 0z"/><path d="m1.83718 13.4465c0 .2239-.00407.4478.00407.6676.00407.1425-.04071.2076-.1954.2076-.45999-.0041-.919985-.0041-1.375907 0-.146546 0-.2035368-.057-.2035368-.2035.0040708-.46.0040708-.92 0-1.3759 0-.1344.0447778-.1954.1872538-.1954.464064.004.9322.004 1.39626 0 .14248 0 .19133.0488.18726.1913-.00815.2361 0 .4722 0 .7083z"/><path d="m18.2816 14.3218c-.2239 0-.4478-.0041-.6676 0-.1424.004-.2117-.0408-.2076-.1954.0082-.4641.0041-.9322 0-1.3963 0-.1262.0448-.1832.1751-.1791.4722.0041.9444.0041 1.4166 0 .1302 0 .1791.0529.1791.1832-.0041.464-.0041.9322 0 1.3962 0 .1547-.0692.1995-.2117.1954-.2239-.0081-.4518-.004-.6839-.004z"/><path d="m7.03639 18.6496c0 .2239-.00407.4478.00408.6676.00407.1425-.04071.2076-.1954.2076-.45999-.004-.91999-.004-1.37591 0-.14654 0-.20354-.0569-.20354-.2035.00408-.46.00408-.92 0-1.3759 0-.1343.04478-.1954.18726-.1954.46406.0041.9322.0041 1.39626 0 .14248 0 .19133.0529.18725.1913-.00407.2361 0 .4722 0 .7083z"/><path d="m13.1067 17.7503c.2279 0 .46.004.6879 0 .1303-.0041.1832.0488.1832.1791-.0041.4722-.0041.9444 0 1.4166 0 .114-.0407.1791-.1628.175-.4804 0-.9607 0-1.437 0-.118 0-.171-.0488-.171-.1709.0041-.4804.0041-.9607 0-1.437 0-.1262.053-.1669.171-.1628.2442.004.4844 0 .7287 0z"/><path d="m7.91622 7.3702c-.00407.48035-.43149.89963-.9037.88742-.48442-.01221-.89556-.43557-.88335-.90777.01628-.47628.42336-.87928.89556-.87521.48035-.00407.89964.41929.89149.89556z"/><path d="m13.1194 12.5676c-.0041.4803-.4275.8996-.9038.8874-.4844-.0081-.8955-.4355-.8833-.9078.0122-.4762.4234-.8792.8915-.8792.4803.004.8996.4233.8956.8996z"/></g></svg>

<svg width="20" height="20" viewBox="0 0 20 20" fill="none" xmlns="http://www.w3.org/2000/svg">
<g clipPath="url(#clip0_2083_3535)">
<path d="M9.62547 16.064C8.20885 16.064 6.79631 16.0681 5.37969 16.064C4.50041 16.06 3.80025 15.5308 3.58857 14.7207C3.54379 14.5497 3.52344 14.3747 3.52344 14.1996C3.52344 11.3827 3.52344 8.56575 3.52344 5.7488C3.52344 4.64156 4.29281 3.87219 5.40412 3.87219C8.21292 3.86812 11.0258 3.86812 13.8346 3.87219C14.9459 3.87219 15.7153 4.64156 15.7153 5.7488C15.7194 8.56575 15.7194 11.3827 15.7153 14.1996C15.7153 15.2947 14.9418 16.064 13.8428 16.0681C12.4424 16.064 11.0339 16.064 9.62547 16.064ZM5.3227 9.94166C5.3227 11.2891 5.3227 12.6365 5.3227 13.9839C5.3227 14.2648 5.3227 14.2648 5.60358 14.2648C8.28213 14.2648 10.9647 14.2648 13.6433 14.2648C13.9242 14.2648 13.9242 14.2648 13.9242 13.9839C13.9242 11.3054 13.9242 8.62274 13.9242 5.9442C13.9242 5.66332 13.9242 5.66332 13.6433 5.66332C10.9647 5.66332 8.28213 5.66332 5.60358 5.66332C5.3227 5.66332 5.3227 5.66332 5.3227 5.9442C5.3227 7.27533 5.3227 8.61053 5.3227 9.94166Z" fill="white"/>
<path d="M9.61398 2.17935C9.38602 2.17935 9.15399 2.17528 8.92603 2.17935C8.79169 2.18342 8.72656 2.13458 8.72656 1.9921C8.73063 1.52397 8.73063 1.0599 8.72656 0.591767C8.72656 0.453362 8.78762 0.400443 8.92196 0.404514C9.39009 0.408584 9.85416 0.408584 10.3223 0.404514C10.477 0.404514 10.5218 0.469645 10.5218 0.612121C10.5177 1.06397 10.5177 1.5199 10.5218 1.97175C10.5218 2.13051 10.4566 2.1875 10.3019 2.17935C10.074 2.17121 9.84601 2.17935 9.61398 2.17935Z" fill="white"/>
<path d="M1.8375 9.96236C1.8375 10.1903 1.83343 10.4224 1.8375 10.6503C1.84157 10.7969 1.79272 10.862 1.64211 10.8579C1.18211 10.8539 0.72212 10.8539 0.262127 10.8579C0.111509 10.8579 0.0626607 10.7928 0.0626607 10.6503C0.0667314 10.1903 0.0708022 9.73033 0.0626607 9.27034C0.05859 9.10751 0.131863 9.05866 0.28248 9.06273C0.730261 9.0668 1.17397 9.07087 1.62175 9.06273C1.79272 9.05866 1.84564 9.13193 1.8375 9.29476C1.82936 9.51865 1.8375 9.74254 1.8375 9.96236Z" fill="white"/>
<path d="M17.407 9.94179C17.407 9.7179 17.4111 9.49401 17.407 9.27419C17.403 9.12765 17.4518 9.06251 17.6024 9.06659C18.0624 9.07066 18.5224 9.07066 18.9824 9.06659C19.133 9.06659 19.1819 9.13172 19.1819 9.27419C19.1778 9.73419 19.1737 10.1942 19.1819 10.6542C19.186 10.817 19.1127 10.8659 18.9621 10.8618C18.5143 10.8577 18.0706 10.8536 17.6228 10.8618C17.4518 10.8659 17.3989 10.7926 17.407 10.6297C17.4152 10.4059 17.407 10.1738 17.407 9.94179Z" fill="white"/>
<path d="M9.62212 17.7503C9.85009 17.7503 10.0821 17.7543 10.3101 17.7503C10.4526 17.7462 10.5218 17.791 10.5218 17.9456C10.5177 18.4138 10.5177 18.8778 10.5218 19.346C10.5218 19.4722 10.4688 19.5292 10.3386 19.5251C9.86637 19.521 9.39009 19.521 8.91789 19.5251C8.77541 19.5251 8.72656 19.464 8.72656 19.3297C8.73063 18.8697 8.73063 18.4097 8.72656 17.9497C8.72656 17.8032 8.78355 17.7462 8.93417 17.7503C9.16213 17.7584 9.39009 17.7503 9.62212 17.7503Z" fill="white"/>
<path d="M6.16509 0.408618C6.38898 0.408618 6.61287 0.412689 6.83269 0.408618C6.97517 0.404547 7.04437 0.449325 7.0403 0.604013C7.03216 1.06808 7.03623 1.53621 7.0403 2.00028C7.0403 2.12647 6.99552 2.18346 6.86526 2.17939C6.39305 2.17532 5.92085 2.17532 5.44864 2.17939C5.31838 2.17939 5.26953 2.12647 5.26953 1.9962C5.2736 1.53214 5.2736 1.06401 5.26953 0.599942C5.26953 0.445254 5.33873 0.400476 5.48121 0.404547C5.7051 0.412689 5.93306 0.408618 6.16509 0.408618Z" fill="white"/>
<path d="M13.0863 2.17897C12.8502 2.17897 12.6141 2.1749 12.378 2.17897C12.26 2.18304 12.207 2.13419 12.207 2.01207C12.2111 1.53173 12.2111 1.05138 12.207 0.575103C12.207 0.452981 12.26 0.408203 12.378 0.408203C12.8502 0.408203 13.3224 0.412274 13.7946 0.408203C13.9208 0.408203 13.9778 0.457052 13.9778 0.587315C13.9737 1.05952 13.9737 1.53173 13.9778 2.00393C13.9778 2.13827 13.9167 2.18304 13.7905 2.17897C13.5626 2.1749 13.3265 2.17897 13.0863 2.17897Z" fill="white"/>
<path d="M1.83734 6.49097C1.83734 6.72708 1.83327 6.96318 1.83734 7.19928C1.84141 7.32955 1.79256 7.37839 1.65823 7.37839C1.18602 7.37432 0.713818 7.37432 0.241612 7.37839C0.107278 7.37839 0.0625 7.3214 0.0625 7.19521C0.0665707 6.73115 0.0665707 6.26301 0.0625 5.79895C0.0625 5.66054 0.11542 5.60355 0.253825 5.60762C0.717888 5.6117 1.18602 5.6117 1.65009 5.60762C1.79256 5.60762 1.83734 5.66869 1.83327 5.80302C1.83327 6.03098 1.83734 6.26301 1.83734 6.49097Z" fill="white"/>
<path d="M18.2774 7.37841C18.0494 7.37841 17.8174 7.37434 17.5894 7.37841C17.4632 7.38248 17.4062 7.3377 17.4062 7.20337C17.4103 6.73116 17.4103 6.25896 17.4062 5.78675C17.4062 5.65649 17.4551 5.60357 17.5854 5.60764C18.0576 5.61171 18.5298 5.61171 19.002 5.60764C19.1363 5.60764 19.177 5.6687 19.177 5.79489C19.1729 6.25896 19.1729 6.72709 19.177 7.19115C19.177 7.32956 19.1241 7.38248 18.9857 7.37841C18.7496 7.37434 18.5135 7.37841 18.2774 7.37841Z" fill="white"/>
<path d="M1.83718 13.4465C1.83718 13.6704 1.83311 13.8943 1.84125 14.1141C1.84532 14.2566 1.80054 14.3217 1.64585 14.3217C1.18586 14.3176 0.725865 14.3176 0.269943 14.3217C0.123397 14.3217 0.0664062 14.2647 0.0664062 14.1182C0.070477 13.6582 0.070477 13.1982 0.0664062 12.7423C0.0664062 12.6079 0.111184 12.5469 0.25366 12.5469C0.717724 12.5509 1.18586 12.5509 1.64992 12.5469C1.7924 12.5469 1.84125 12.5957 1.83718 12.7382C1.82903 12.9743 1.83718 13.2104 1.83718 13.4465Z" fill="white"/>
<path d="M18.2816 14.3218C18.0577 14.3218 17.8338 14.3177 17.614 14.3218C17.4716 14.3258 17.4023 14.281 17.4064 14.1264C17.4146 13.6623 17.4105 13.1942 17.4064 12.7301C17.4064 12.6039 17.4512 12.5469 17.5815 12.551C18.0537 12.5551 18.5259 12.5551 18.9981 12.551C19.1283 12.551 19.1772 12.6039 19.1772 12.7342C19.1731 13.1982 19.1731 13.6664 19.1772 14.1304C19.1772 14.2851 19.108 14.3299 18.9655 14.3258C18.7416 14.3177 18.5137 14.3218 18.2816 14.3218Z" fill="white"/>
<path d="M7.03639 18.6496C7.03639 18.8735 7.03232 19.0974 7.04047 19.3172C7.04454 19.4597 6.99976 19.5248 6.84507 19.5248C6.38508 19.5208 5.92508 19.5208 5.46916 19.5248C5.32262 19.5248 5.26562 19.4679 5.26562 19.3213C5.2697 18.8613 5.2697 18.4013 5.26562 17.9454C5.26562 17.8111 5.3104 17.75 5.45288 17.75C5.91694 17.7541 6.38508 17.7541 6.84914 17.75C6.99162 17.75 7.04047 17.8029 7.03639 17.9413C7.03232 18.1774 7.03639 18.4135 7.03639 18.6496Z" fill="white"/>
<path d="M13.1067 17.7503C13.3346 17.7503 13.5667 17.7543 13.7946 17.7503C13.9249 17.7462 13.9778 17.7991 13.9778 17.9294C13.9737 18.4016 13.9737 18.8738 13.9778 19.346C13.9778 19.46 13.9371 19.5251 13.815 19.521C13.3346 19.521 12.8543 19.521 12.378 19.521C12.26 19.521 12.207 19.4722 12.207 19.3501C12.2111 18.8697 12.2111 18.3894 12.207 17.9131C12.207 17.7869 12.26 17.7462 12.378 17.7503C12.6222 17.7543 12.8624 17.7503 13.1067 17.7503Z" fill="white"/>
<path d="M7.91622 7.3702C7.91215 7.85055 7.48473 8.26983 7.01252 8.25762C6.5281 8.24541 6.11696 7.82205 6.12917 7.34985C6.14545 6.87357 6.55253 6.47057 7.02473 6.47464C7.50508 6.47057 7.92437 6.89393 7.91622 7.3702Z" fill="white"/>
<path d="M13.1194 12.5676C13.1153 13.0479 12.6919 13.4672 12.2156 13.455C11.7312 13.4469 11.3201 13.0195 11.3323 12.5472C11.3445 12.071 11.7557 11.668 12.2238 11.668C12.7041 11.672 13.1234 12.0913 13.1194 12.5676Z" fill="white"/>
</g>
<defs>
<clipPath id="clip0_2083_3535">
<rect width="19.1202" height="19.1202" fill="white" transform="translate(0.0625 0.404297)"/>
</clipPath>
</defs>
</svg>
